%1000
(12 JAN 17)
(MACHINE CONFIGURATION = 0, 0, 0, 1, 0)
(MACHINING TIME = 0MINS 50SECS)
(TOOL#1 - FLAT -  1-4 IN DIA)
N1 G70   (G71 IF METRIC IS DESIRED - FILE IS DRAWN AND POSTED IN STANDARD VALUES FOR XY COORDINATES, FEED RATES, AND Z LEVELS)
N3 G40
N5 L_parkz
N7 G54
N9 T1 D1
N13 G00 X7.6794 Y9.8185
N15 Z1.5
N17 G42
N19 Z1.
(TRACE2)
N35 M03 S10000
N65 G90 X59.028 Y-102.235 Z15.
N70 G00 Z4.
N75 G01 Z-1. F381.
N80 X-59.028
N85 X-118.031 Y0.
N90 X-59.028 Y102.235
N95 X59.028
N100 X118.031 Y0.
N105 X59.028 Y-102.235
N110 Z4.
N291 G40
N293 G00 X-0.1577 Y4.8759 Z1.5
N295 G40
N297 G00 Z1.5
N299 M05
N301 M30
