%
O1001
(T2 D=1.587 CR=0. TAPER=90DEG - ZMIN=-1. - SPOT DRILL)
N10 G00 G91 G28 Z0.
N15 G00 G91 G28 A0. C0.
N20 G17 G21 G40 G49
N25 G64 G69 G80 G90 G94

(TRACE2)
N30 M06 T2
N35 M03 S10000
N40 G55
N45 G69
N50 G5.1 Q1 R7
N60 G00 G43.4 H02
N65 G90 X59.028 Y-102.235 Z15.
N70 G00 Z4.
N75 G01 Z-1. F381.
N80 X-59.028
N85 X-118.031 Y0.
N90 X-59.028 Y102.235
N95 X59.028
N100 X118.031 Y0.
N105 X59.028 Y-102.235
N110 Z4.
N115 G00 Z15.

N125 M05
N130 G00 G28 G91 Z0.
N135 G90
N140 G49
N145 G5.1 Q0
N150 M30
%
