%1000
(12 JAN 17)
(MACHINE CONFIGURATION = 0, 0, 0, 1, 0)
(MACHINING TIME = 0MINS 50SECS)
(TOOL#1 - FLAT -  1-4 IN DIA)
N1 G70   (G71 IF METRIC IS DESIRED - FILE IS DRAWN AND POSTED IN STANDARD VALUES FOR XY COORDINATES, FEED RATES, AND Z LEVELS)
N3 G40
N5 L_parkz
N7 G54
N9 T1 D1
N11 M03 S18000
N13 G00 X7.6794 Y9.8185
N15 Z1.5
N17 G42
N19 Z1.
N21 G01 X8. Y9.875 Z0.625 F100.
N23 G02 X9.624 Y7.0628 I0. J-1.875 F300.
N25 X6.376 I-1.624 J0.9372
N27 X8. Y9.875 I1.624 J0.9372
N29 X8.2493 Y9.8584 I0. J-1.875
N31 G01 X8.5595 Y9.7597 Z1.
N33 G40
N35 G00 X8.5595 Y9.7597 Z1.5
N37 G40
N39 G00 Z1.5
N41 X8.4924 Y9.7118
N43 G42
N45 G00 Z1.
N47 G01 X8. Y9.625 Z0.625 F100.
N49 G03 X6.5925 Y7.1878 I0. J-1.625 F300.
N51 X9.4075 I1.4075 J0.8122
N53 X8. Y9.625 I-1.4075 J0.8122
N55 X7.751 Y9.6058 I0. J-1.625
N57 G01 X7.2511 Y9.6161 Z1.
N59 G40
N61 G00 X7.2511 Y9.6161 Z1.5
N63 G40
N65 G00 Z1.5
N67 X-0.875 Y0.875
N69 G42
N71 G00 Z1.
N73 G01 X-0.25 Z0.625 F100.
N75 X12.25 F300.
N77 X12.875 Z1.
N79 G40
N81 G00 X12.875 Y0.875 Z1.5
N83 G40
N85 G00 Z1.5
N87 X0.875 Y-0.875
N89 G41
N91 G00 Z1.
N93 G01 Y-0.25 Z0.625 F100.
N95 Y12.25 F300.
N97 Y12.875 Z1.
N99 G40
N101 G00 X0.875 Y12.875 Z1.5
N103 G40
N105 G00 Z1.5
N107 X4. Y4.0625
N109 Z1.
N111 G01 Z0.625 F100.
N113 G40
N115 G01 X4.0625 F300.
N117 Y3.9375
N119 X3.9375
N121 Y4.0625
N123 X4.
N125 X4.125 Y4.1875
N127 X4.1875
N129 Y3.8125
N131 X3.8125
N133 Y4.1875
N135 X4.
N137 X4.125
N139 X4.3125 Y4.375
N141 X4.375
N143 Y3.625
N145 X3.625
N147 Y4.375
N149 X4.
N151 X4.3125
N153 X4.5 Y4.5625
N155 X4.5625
N157 Y3.4375
N159 X3.4375
N161 Y4.5625
N163 X4.
N165 X4.5
N167 X4.6875 Y4.75
N169 X4.75
N171 Y3.25
N173 X3.25
N175 Y4.75
N177 X4.
N179 X4.6875
N181 X4.875 Y4.9375
N183 X4.9375
N185 Y3.0625
N187 X3.0625
N189 Y4.9375
N191 X4.
N193 X4.875
N195 X5.0625 Y5.125
N197 X5.125
N199 Y2.875
N201 X2.875
N203 Y5.125
N205 X4.
N207 X5.0625
N209 X5.25 Y5.3125
N211 X5.3125
N213 Y2.6875
N215 X2.6875
N217 Y5.3125
N219 X4.
N221 X5.25
N223 X5.4375 Y5.5
N225 X5.5
N227 Y2.5
N229 X2.5
N231 Y5.5
N233 X4.
N235 X5.4375
N237 X5.625 Y5.6875
N239 X5.6875
N241 Y2.3125
N243 X2.3125
N245 Y5.6875
N247 X4.
N249 X5.625
N251 X5.8125 Y5.875
N253 X5.875
N255 Y2.125
N257 X2.125
N259 Y5.875
N261 X4.
N263 X5.8125
N265 G00 Z1.5
N267 X-0.1577 Y6.6241
N269 G42
N271 G00 Z1.
N273 G01 X-0.125 Y6. Z0.5 F100.
N275 Y-0.125 F300.
N277 X12.125
N279 Y9.
N281 G03 X9. Y12.125 I-3.125 J0.
N283 G01 X-0.125
N285 Y6.
N287 Y5.5
N289 X-0.1577 Y4.8759 Z1.
N291 G40
N293 G00 X-0.1577 Y4.8759 Z1.5
N295 G40
N297 G00 Z1.5
N299 M05
N301 M30
